paymentMethods/ratepay.svg

<svg width="128" height="64" viewBox="0 0 128 64" fill="none" xmlns="http://www.w3.org/2000/svg">
<rect width="128" height="64" rx="6" fill="white"/>
<path d="M51.2787 26.2694V38.7858H47.296V37.0265C47.1316 37.3299 46.9216 37.6064 46.6735 37.8462C46.4041 38.0976 46.1055 38.3156 45.7841 38.4958C45.4288 38.6811 45.0541 38.8263 44.6667 38.9289C44.2757 39.0414 43.871 39.0986 43.4641 39.099C42.6114 39.0998 41.7682 38.9206 40.9895 38.5732C40.2605 38.2586 39.6028 37.7996 39.0561 37.2237C38.5058 36.6135 38.0825 35.8997 37.8111 35.1241C37.2233 33.4271 37.2233 31.5817 37.8111 29.8848C38.0892 29.1181 38.5118 28.4119 39.0561 27.8045C39.5975 27.2167 40.2561 26.7491 40.9895 26.4318C41.7741 26.0875 42.6228 25.9136 43.4796 25.9214C43.8865 25.925 44.291 25.9836 44.6821 26.0954C45.0669 26.1998 45.4371 26.3518 45.7841 26.5478C46.4074 26.9044 46.924 27.421 47.2806 28.0442V26.2694H51.2787ZM44.3187 35.7428C44.7372 35.7478 45.1517 35.6606 45.5328 35.4876C45.8892 35.3259 46.2069 35.0899 46.4647 34.7954C46.7319 34.4975 46.9393 34.1509 47.0756 33.7746C47.2214 33.381 47.2973 32.9648 47.2999 32.545C47.3012 31.7212 47.0045 30.9247 46.4647 30.3024C46.2094 30.0014 45.8913 29.7599 45.5328 29.5948C45.1495 29.4264 44.7354 29.3394 44.3167 29.3394C43.8981 29.3394 43.484 29.4264 43.1007 29.5948C42.7394 29.757 42.4195 29.9989 42.1649 30.3024C41.6281 30.9237 41.3306 31.7162 41.3259 32.5373C41.3259 32.9577 41.4033 33.3745 41.554 33.7669C41.6899 34.1417 41.8945 34.4878 42.1572 34.7877C42.4197 35.077 42.7363 35.3121 43.0891 35.4798C43.473 35.6576 43.8918 35.7474 44.3148 35.7428H44.3187Z" fill="#E4003F"/>
<path d="M66.3896 33.4964C66.4095 33.8596 66.4665 34.2198 66.5598 34.5713C66.6371 34.8983 66.7984 35.1995 67.0276 35.4452C67.263 35.7049 67.5537 35.9084 67.8783 36.0406C68.2912 36.1996 68.7313 36.2758 69.1736 36.2649C69.7262 36.309 70.2782 36.1734 70.7474 35.8782C71.0941 35.6234 71.3545 35.2685 71.4936 34.8613H75.4028C75.3157 35.4529 75.1077 36.0201 74.7919 36.5278C74.463 37.0608 74.0304 37.5223 73.5198 37.885C72.9519 38.2944 72.3192 38.6055 71.6483 38.8053C69.8971 39.295 68.0381 39.2384 66.32 38.6429C65.5248 38.3632 64.8027 37.9079 64.2076 37.3107C63.6125 36.7136 63.1596 35.9901 62.8826 35.1938C62.3025 33.4969 62.3025 31.6553 62.8826 29.9584C63.1567 29.1791 63.5899 28.4654 64.1547 27.8626C64.7433 27.2545 65.4499 26.7729 66.2311 26.4474C67.1439 26.0819 68.121 25.9044 69.104 25.9254C70.0108 25.9122 70.9119 26.0696 71.7604 26.3894C72.5103 26.6707 73.1984 27.0948 73.7866 27.6384C74.3385 28.1488 74.779 28.7677 75.0804 29.4564C75.3818 30.1451 75.5377 30.8886 75.5382 31.6404V32.4756C75.5216 32.8167 75.4828 33.1564 75.4222 33.4925L66.3896 33.4964ZM69.0615 28.5857C68.3534 28.5591 67.6618 28.8039 67.1282 29.2701C66.8701 29.5184 66.6693 29.8201 66.5397 30.154C66.4102 30.4879 66.355 30.846 66.378 31.2034H71.6174C71.6391 30.8485 71.586 30.493 71.4614 30.1599C71.3368 29.8268 71.1436 29.5237 70.8943 29.2701C70.6518 29.0323 70.3628 28.8471 70.0454 28.726C69.7281 28.605 69.3892 28.5506 69.0499 28.5664L69.0615 28.5857Z" fill="#E4003F"/>
<path d="M105.946 26.4127V38.9291H101.975V37.162C101.81 37.4664 101.6 37.7441 101.352 37.9856C101.082 38.2373 100.784 38.4566 100.463 38.6391C100.111 38.8247 99.7403 38.9712 99.3568 39.076C98.9672 39.1885 98.5637 39.2457 98.1581 39.2461C97.3001 39.2539 96.4501 39.08 95.6641 38.7357C94.9327 38.4151 94.2747 37.9479 93.7308 37.3631C93.1805 36.7609 92.7559 36.055 92.4819 35.2867C91.898 33.589 91.898 31.745 92.4819 30.0473C92.7605 29.2812 93.1846 28.5761 93.7308 27.9709C94.2718 27.3828 94.9305 26.9151 95.6641 26.5983C96.449 26.2503 97.2997 26.0762 98.1581 26.0879C98.5635 26.0902 98.9668 26.1474 99.3568 26.258C99.7428 26.3624 100.114 26.5143 100.463 26.7104C100.791 26.8929 101.09 27.1221 101.352 27.3909C101.592 27.6319 101.801 27.9021 101.975 28.1952V26.3856H105.946V26.4127ZM99.0011 35.8667C99.4071 35.8732 99.8098 35.792 100.182 35.6285C100.553 35.4649 100.885 35.2231 101.155 34.9193C101.421 34.622 101.626 34.2751 101.758 33.8985C101.904 33.5048 101.983 33.089 101.99 32.6689C101.987 32.2535 101.908 31.8422 101.758 31.4548C101.619 31.0815 101.415 30.7358 101.155 30.434C100.897 30.1336 100.578 29.8923 100.219 29.7264C99.8358 29.558 99.4217 29.4711 99.003 29.4711C98.5843 29.4711 98.1703 29.558 97.7869 29.7264C97.43 29.8868 97.115 30.1277 96.8667 30.4301C96.6043 30.7316 96.3975 31.0772 96.2557 31.4509C96.11 31.8393 96.0341 32.2503 96.0315 32.6651C96.036 33.0847 96.1118 33.5005 96.2557 33.8947C96.3945 34.2698 96.6016 34.6159 96.8667 34.9155C97.1273 35.2068 97.4443 35.4422 97.7985 35.6076C98.1758 35.7803 98.5862 35.8688 99.0011 35.8667V35.8667Z" fill="#E4003F"/>
<path d="M114.332 42.0532H109.692L111.947 37.5485L106.92 26.4125H111.831L114.267 33.0323L117.36 26.4125H122L114.332 42.0532Z" fill="#E4003F"/>
<path d="M60.5201 35.8319C60.2921 35.832 60.0649 35.8048 59.8434 35.7507C59.6377 35.6956 59.4481 35.5922 59.2905 35.4491C59.1139 35.2707 58.9815 35.0536 58.9038 34.8149C58.8001 34.4493 58.757 34.0692 58.7762 33.6897V29.2431H61.0962L62.6235 26.2696H58.7994V21.9467L54.8399 24.0772V26.2541H52.8563V29.2276H54.8399V34.6023C54.8008 35.4441 54.9446 36.2844 55.2614 37.0653C55.4934 37.6019 55.8712 38.0627 56.3518 38.3955C56.7902 38.6913 57.2899 38.8843 57.8134 38.96C58.3094 39.0268 58.8094 39.0591 59.3098 39.0567C59.8898 39.0567 60.435 39.0296 60.8565 38.9909C61.2779 38.9523 61.6646 38.9059 61.9623 38.8479V35.7739C61.7434 35.8291 61.5191 35.8602 61.2934 35.8667C61.0073 35.8667 60.7598 35.8319 60.5201 35.8319Z" fill="#E4003F"/>
<path d="M37.3818 26.2579C37.0225 26.1269 36.6429 26.0602 36.2605 26.0607C35.4816 26.0595 34.7166 26.2673 34.0453 26.6625C33.3741 27.0576 32.8211 27.6256 32.4441 28.3072V26.2695H28.4498V38.7859H32.4325V33.8945C32.4325 32.3479 32.7573 31.2729 33.4262 30.6427C34.0131 30.0758 34.7878 29.7441 35.6032 29.7108L37.3818 26.2579Z" fill="#E4003F"/>
<path d="M17.9867 25.3105C16.6584 24.5225 15.1424 24.1071 13.598 24.108C11.9829 24.1272 10.4076 24.611 9.06018 25.5018C7.7128 26.3925 6.65041 27.6523 6 29.1308L10.2031 33.2449L17.9867 25.3105Z" fill="#E4003F"/>
<path d="M21.37 29.1308L10.4119 40.3016C11.4648 40.7406 12.5926 40.9716 13.7333 40.9821C15.9673 40.9597 18.1008 40.0509 19.6649 38.4557C21.2289 36.8605 22.0954 34.7094 22.0737 32.4755V32.4755C22.0846 31.3227 21.8444 30.1814 21.37 29.1308V29.1308Z" fill="#E4003F"/>
<path d="M81.0714 28.0676C81.2418 27.7738 81.4498 27.5034 81.69 27.2633C81.962 26.9989 82.2675 26.7714 82.5987 26.5867C82.9548 26.3953 83.3309 26.2436 83.72 26.1343C84.1106 26.0199 84.5156 25.9626 84.9226 25.9641C85.7781 25.9567 86.6254 26.1307 87.4088 26.4745C88.1401 26.7955 88.798 27.2626 89.3422 27.8472C89.8829 28.4516 90.2982 29.1574 90.564 29.9236C91.1479 31.6212 91.1479 33.4653 90.564 35.1629C90.2864 35.9281 89.8666 36.634 89.3267 37.2432C88.7879 37.8338 88.1286 38.3019 87.3934 38.6159C86.6105 38.9601 85.7622 39.1303 84.9071 39.1147C84.5062 39.1179 84.1067 39.0658 83.72 38.96C83.3303 38.8523 82.9541 38.7005 82.5987 38.5076C82.2668 38.3303 81.9621 38.1064 81.6939 37.8425C81.4469 37.6017 81.2371 37.3254 81.0714 37.0228V42.0533H77.0964V26.2696H81.0714V28.0676ZM84.1067 29.3397C83.6819 29.3346 83.2611 29.4217 82.8732 29.5949C82.5089 29.7503 82.1858 29.9886 81.9298 30.2909C81.6605 30.5859 81.4528 30.9316 81.3188 31.3079C81.0195 32.1003 81.0195 32.9746 81.3188 33.7671C81.4576 34.1422 81.6647 34.4883 81.9298 34.7879C82.1903 35.081 82.509 35.3167 82.8655 35.48C83.2541 35.651 83.6744 35.738 84.099 35.7352C84.5121 35.7364 84.9208 35.6494 85.2976 35.48C85.6547 35.3194 85.9726 35.0832 86.2295 34.7879C86.4892 34.4892 86.6876 34.1423 86.8134 33.7671C87.1127 32.9746 87.1127 32.1003 86.8134 31.3079C86.6772 30.9326 86.4698 30.5873 86.2024 30.2909C85.9379 29.9869 85.6103 29.7442 85.2423 29.5799C84.8743 29.4156 84.4749 29.3337 84.0719 29.3397H84.1067Z" fill="#E4003F"/>
</svg>

<svg xmlns="http://www.w3.org/2000/svg" width="128" height="64" fill="none"><rect width="128" height="64" fill="#fff" rx="6"/><path fill="#E4003F" d="M51.279 26.27v12.516h-3.983v-1.76c-.164.304-.374.58-.623.82-.269.252-.568.47-.889.65-.355.185-.73.33-1.117.433-.391.112-.796.17-1.203.17a6.06 6.06 0 0 1-2.474-.526 5.876 5.876 0 0 1-1.934-1.35 6.186 6.186 0 0 1-1.245-2.099 8.004 8.004 0 0 1 0-5.24c.278-.766.7-1.472 1.245-2.08a5.712 5.712 0 0 1 1.934-1.372 6.06 6.06 0 0 1 2.49-.51 4.52 4.52 0 0 1 1.202.173c.385.105.755.257 1.102.453a4.03 4.03 0 0 1 1.497 1.496V26.27h3.998Zm-6.96 9.473c.418.005.833-.082 1.214-.255.356-.162.674-.398.932-.693a3.12 3.12 0 0 0 .61-1.02c.146-.394.222-.81.225-1.23a3.414 3.414 0 0 0-.835-2.243 2.706 2.706 0 0 0-.932-.707 3.023 3.023 0 0 0-2.432 0 2.624 2.624 0 0 0-.936.707 3.449 3.449 0 0 0-.84 2.235c0 .42.078.837.229 1.23.136.375.34.72.603 1.02.263.29.58.525.932.693.384.178.803.267 1.226.263h.004ZM66.39 33.496c.02.364.076.724.17 1.075.077.327.238.629.468.874.235.26.526.463.85.596.413.159.853.235 1.296.224a2.571 2.571 0 0 0 1.573-.387c.347-.255.608-.61.747-1.017h3.909a4.357 4.357 0 0 1-.611 1.667 4.678 4.678 0 0 1-1.272 1.357c-.568.41-1.2.72-1.872.92a8.928 8.928 0 0 1-5.328-.162 5.61 5.61 0 0 1-3.437-3.45 8.092 8.092 0 0 1 0-5.235 5.955 5.955 0 0 1 1.272-2.095 6.219 6.219 0 0 1 2.076-1.416 7.308 7.308 0 0 1 2.873-.522 7.233 7.233 0 0 1 2.656.464c.75.282 1.438.706 2.027 1.25a5.455 5.455 0 0 1 1.751 4.001v.836c-.016.34-.055.68-.116 1.017l-9.032.003Zm2.671-4.91a2.78 2.78 0 0 0-1.933.684 2.463 2.463 0 0 0-.75 1.933h5.24a2.536 2.536 0 0 0-.724-1.933 2.47 2.47 0 0 0-1.844-.704l.011.02ZM105.946 26.413v12.516h-3.971v-1.767a3.433 3.433 0 0 1-.623.824c-.27.251-.568.47-.889.653a5.453 5.453 0 0 1-1.106.437c-.39.112-.793.17-1.199.17a6.078 6.078 0 0 1-2.494-.51 5.845 5.845 0 0 1-1.933-1.373 6.131 6.131 0 0 1-1.25-2.076 8.055 8.055 0 0 1 0-5.24 6.326 6.326 0 0 1 1.25-2.076 5.695 5.695 0 0 1 1.933-1.373 5.953 5.953 0 0 1 2.494-.51c.406.002.809.06 1.199.17.386.104.757.256 1.106.452.328.183.627.412.889.68.24.242.449.512.623.805v-1.81h3.971v.028Zm-6.945 9.454a2.823 2.823 0 0 0 2.154-.948c.266-.297.471-.644.603-1.02.146-.394.225-.81.232-1.23a3.431 3.431 0 0 0-.232-1.214 3.36 3.36 0 0 0-.603-1.021 2.76 2.76 0 0 0-.936-.708 3.022 3.022 0 0 0-2.432 0c-.357.16-.672.402-.92.704-.263.302-.47.647-.611 1.02a3.52 3.52 0 0 0-.225 1.215c.005.42.08.836.225 1.23.138.375.346.72.61 1.02.261.292.578.527.933.693.377.172.787.26 1.202.259ZM114.332 42.053h-4.64l2.255-4.505-5.027-11.136h4.911l2.436 6.62 3.093-6.62H122l-7.668 15.641ZM60.52 35.832c-.228 0-.455-.027-.677-.081a1.337 1.337 0 0 1-.553-.302 1.61 1.61 0 0 1-.386-.634 3.48 3.48 0 0 1-.128-1.125v-4.447h2.32l1.528-2.973h-3.825v-4.323l-3.96 2.13v2.177h-1.983v2.974h1.984v5.374c-.04.842.105 1.682.421 2.463.232.537.61.998 1.09 1.33.44.296.939.49 1.462.565.496.067.996.1 1.497.097.58 0 1.125-.027 1.546-.066.422-.039.809-.085 1.106-.143v-3.074a3.1 3.1 0 0 1-.669.093c-.286 0-.533-.035-.773-.035ZM37.382 26.258a3.261 3.261 0 0 0-1.121-.197 4.353 4.353 0 0 0-3.817 2.246V26.27H28.45v12.516h3.982v-4.892c0-1.546.325-2.621.994-3.251a3.33 3.33 0 0 1 2.177-.932l1.779-3.453ZM17.987 25.31a8.592 8.592 0 0 0-4.389-1.202A8.41 8.41 0 0 0 6 29.131l4.203 4.114 7.784-7.934ZM21.37 29.13 10.412 40.303c1.053.439 2.18.67 3.321.68a8.425 8.425 0 0 0 8.34-8.507 7.945 7.945 0 0 0-.703-3.344ZM81.071 28.068c.17-.294.379-.565.619-.805.272-.264.578-.492.909-.676a5.524 5.524 0 0 1 1.121-.453c.39-.114.796-.171 1.203-.17a6.056 6.056 0 0 1 2.486.51c.731.322 1.389.789 1.933 1.373.54.605.956 1.31 1.222 2.077a8.054 8.054 0 0 1 0 5.239 6.456 6.456 0 0 1-1.237 2.08 5.588 5.588 0 0 1-1.934 1.373 5.91 5.91 0 0 1-2.486.499c-.4.003-.8-.05-1.187-.155a5.323 5.323 0 0 1-1.121-.452 3.93 3.93 0 0 1-.905-.666 3.477 3.477 0 0 1-.623-.82v5.031h-3.975V26.27h3.975v1.798Zm3.036 1.272a2.939 2.939 0 0 0-1.234.255 2.544 2.544 0 0 0-.943.696c-.27.295-.477.64-.611 1.017a3.48 3.48 0 0 0 0 2.46c.139.374.346.72.61 1.02.261.293.58.529.936.692.39.171.81.258 1.234.255.413.001.822-.086 1.199-.255.357-.16.675-.397.931-.692.26-.299.459-.646.584-1.02.3-.793.3-1.668 0-2.46a3.093 3.093 0 0 0-.61-1.017 2.77 2.77 0 0 0-2.131-.951h.035Z"/></svg>
